static/logos/dropbox-glyph-color.svg

<svg width="50" height="47" viewBox="0 0 50 47" fill="none" xmlns="http://www.w3.org/2000/svg">
<g clip-path="url(#clip0_1_2926)">
<path d="M14.5349 0L0 9.4186L10.1163 17.5581L24.6512 8.48837L14.5349 0ZM0 25.4651L14.5349 35L24.6512 26.5116L10.1163 17.5581L0 25.4651ZM24.6512 26.5116L34.8837 35L49.3023 25.5814L39.3023 17.5581L24.6512 26.5116V26.5116ZM49.3023 9.4186L34.8837 0L24.6512 8.48837L39.3023 17.5581L49.3023 9.4186ZM24.7674 28.3721L14.5349 36.8605L10.2326 33.9535V37.2093L24.7674 45.9302L39.3023 37.2093V33.9535L34.8837 36.8605L24.7674 28.3721Z" fill="#0056FE"/>
</g>
<defs>
<clipPath id="clip0_1_2926">
<rect width="50" height="46.5116" fill="white"/>
</clipPath>
</defs>
</svg>

<svg xmlns="http://www.w3.org/2000/svg" width="68.085" height="64" fill="none" viewBox="0 0 50 47"><g clip-path="url(#a)"><path fill="#0056FE" d="M14.535 0 0 9.419l10.116 8.14 14.535-9.07L14.535 0ZM0 25.465 14.535 35l10.116-8.488-14.535-8.954L0 25.465Zm24.651 1.047L34.884 35l14.418-9.419-10-8.023-14.65 8.954ZM49.302 9.419 34.884 0 24.65 8.488l14.651 9.07 10-8.14ZM24.767 28.372l-10.232 8.489-4.302-2.907v3.255l14.534 8.721 14.535-8.72v-3.257l-4.418 2.907-10.117-8.488Z"/></g><defs><clipPath id="a"><path fill="#fff" d="M0 0h50v46.512H0z"/></clipPath></defs></svg>
